assets/img/i-d-cambio.svg

<svg width="90" height="90" viewBox="0 0 90 90" fill="none" xmlns="http://www.w3.org/2000/svg">
<path d="M6.92372 15.6362C10.0491 15.6362 12.5828 13.3381 12.5828 10.5033C12.5828 7.66841 10.0491 5.3703 6.92372 5.3703C3.7983 5.3703 1.26465 7.66841 1.26465 10.5033C1.26465 13.3381 3.7983 15.6362 6.92372 15.6362Z" fill="#00C4D1"/>
<path d="M19.3001 7.14065C21.3837 7.14065 23.0728 5.60858 23.0728 3.71867C23.0728 1.82876 21.3837 0.296692 19.3001 0.296692C17.2164 0.296692 15.5273 1.82876 15.5273 3.71867C15.5273 5.60858 17.2164 7.14065 19.3001 7.14065Z" fill="#9D3BFF"/>
<path d="M86.3472 77.5978C88.1116 77.5978 89.542 76.3004 89.542 74.7C89.542 73.0996 88.1116 71.8022 86.3472 71.8022C84.5827 71.8022 83.1523 73.0996 83.1523 74.7C83.1523 76.3004 84.5827 77.5978 86.3472 77.5978Z" fill="#00C4D1"/>
<path d="M76.6542 89.3077C79.599 89.3077 81.9862 87.1424 81.9862 84.4714C81.9862 81.8004 79.599 79.6351 76.6542 79.6351C73.7095 79.6351 71.3223 81.8004 71.3223 84.4714C71.3223 87.1424 73.7095 89.3077 76.6542 89.3077Z" fill="#9D3BFF"/>
<path d="M26.1689 83.3637C25.7269 83.3724 25.2906 83.2721 24.9066 83.0735C24.5225 82.875 24.2051 82.5856 23.9881 82.2363L10.1294 59.7659C9.96756 59.5011 9.86732 59.209 9.83484 58.9077C9.80235 58.6063 9.83831 58.3022 9.94049 58.0139C10.0427 57.7257 10.2089 57.4595 10.4289 57.2318C10.649 57.0041 10.9181 56.8198 11.2197 56.6901L35.448 45.811C35.8725 45.622 36.3482 45.5482 36.8178 45.5987C37.2875 45.6492 37.731 45.8217 38.0951 46.0955C38.4591 46.3693 38.7282 46.7326 38.8698 47.1419C39.0115 47.5511 39.0198 47.9888 38.8936 48.4022L36.7128 55.5132C40.3547 57.4912 56.6014 64.5725 80.1209 48.5901C80.4415 48.3959 80.8191 48.2937 81.2046 48.297C81.5902 48.3002 81.9657 48.4087 82.2822 48.6083C82.5988 48.8079 82.8417 49.0894 82.9794 49.416C83.117 49.7427 83.143 50.0993 83.054 50.4396C82.8686 51.0725 78.5071 65.3835 64.0378 72.8506C54.7368 77.6275 43.4732 78.4483 30.5304 75.2934L28.5459 81.7517C28.4136 82.1744 28.1462 82.5522 27.7775 82.8373C27.4088 83.1225 26.9553 83.3022 26.4742 83.3538L26.1689 83.3637ZM14.1747 59.222L25.7327 77.8747L27.2592 73.1275C27.4188 72.5764 27.8103 72.1042 28.3496 71.8121C28.9566 71.5212 29.665 71.4573 30.3232 71.6341C42.7535 74.878 53.4284 74.2747 62.1514 69.8341C70.0567 65.7692 74.6908 59.2319 77.1114 54.6923C66.8401 60.5571 57.9971 62.367 51.0186 62.367C40.322 62.367 33.9978 58.1341 33.5725 57.8176C33.181 57.5519 32.8879 57.1844 32.7321 56.7639C32.5763 56.3435 32.5652 55.89 32.7002 55.4637L34.3249 50.1923L14.1747 59.222Z" fill="#00C4D1" stroke="#00C4D1" stroke-miterlimit="10"/>
<path d="M53.9521 46.0385C53.3781 46.029 52.826 45.8364 52.3929 45.4945C52.0319 45.2191 51.7652 44.8559 51.6242 44.4477C51.4832 44.0394 51.4737 43.6031 51.5969 43.1901L53.7777 36.0692C50.1358 34.0912 33.8891 27.0099 10.3696 42.9923L7.30566 45.0692V41.5978C7.30566 40.7769 11.1547 28.8396 22.4838 21.1055C32.4389 14.311 45.0219 12.6989 59.8947 16.3286L61.901 9.89012C62.0328 9.4682 62.2991 9.091 62.6665 8.80591C63.0339 8.52081 63.4859 8.34053 63.9659 8.28769C64.4458 8.23486 64.9323 8.31184 65.3642 8.50895C65.7961 8.70607 66.1541 9.01454 66.3934 9.39562L80.3175 31.8561C80.4839 32.1225 80.5882 32.4172 80.6238 32.7217C80.6595 33.0262 80.6257 33.3342 80.5247 33.6264C80.4275 33.9149 80.266 34.1822 80.0504 34.4119C79.8347 34.6415 79.5693 34.8286 79.2708 34.9615L55.0425 45.8407C54.7009 45.9825 54.3276 46.0502 53.9521 46.0385ZM39.4283 29.2253C50.1249 29.2253 56.4491 33.4484 56.8744 33.7648C57.2659 34.0306 57.559 34.3981 57.7148 34.8185C57.8706 35.2389 57.8817 35.6924 57.7467 36.1187L56.122 41.3901L76.2286 32.3605L64.6924 13.7572L63.2422 18.5044C63.0715 19.0403 62.6814 19.4967 62.1518 19.7802C61.8508 19.9283 61.5207 20.021 61.1802 20.0533C60.8397 20.0855 60.4955 20.0566 60.1673 19.9681C47.6934 16.744 37.0076 17.3473 28.35 21.7583C20.3902 25.8626 15.7561 32.3901 13.3355 36.9297C23.6068 31.0648 32.4498 29.2648 39.4283 29.2648V29.2253Z" fill="#9D3BFF" stroke="#9D3BFF" stroke-miterlimit="10"/>
</svg>

<svg xmlns="http://www.w3.org/2000/svg" width="90" height="90" fill="none" xmlns:v="https://vecta.io/nano"><path d="M6.924 15.636c3.125 0 5.66-2.298 5.66-5.133S10.05 5.37 6.924 5.37s-5.66 2.298-5.66 5.133 2.534 5.133 5.66 5.133z" fill="#00c4d1"/><path d="M19.3 7.14c2.084 0 3.773-1.532 3.773-3.422S21.384.297 19.3.297 15.527 1.83 15.527 3.72 17.216 7.14 19.3 7.14z" fill="#9d3bff"/><path d="M86.347 77.598c1.764 0 3.195-1.297 3.195-2.898s-1.43-2.898-3.195-2.898-3.195 1.297-3.195 2.898 1.43 2.898 3.195 2.898z" fill="#00c4d1"/><path d="M76.654 89.308c2.945 0 5.332-2.165 5.332-4.836s-2.387-4.836-5.332-4.836-5.332 2.165-5.332 4.836 2.387 4.836 5.332 4.836z" fill="#9d3bff"/><g stroke-miterlimit="10"><path d="M26.17 83.364a2.64 2.64 0 0 1-1.262-.29 2.34 2.34 0 0 1-.919-.837l-13.86-22.47a2.07 2.07 0 0 1-.295-.858 2.02 2.02 0 0 1 .106-.894c.102-.288.268-.554.488-.782s.49-.412.79-.542l24.228-10.88c.425-.19.9-.263 1.37-.212s.913.223 1.277.497.633.637.775 1.046.15.847.024 1.26l-2.18 7.11c3.642 1.978 19.89 9.06 43.408-6.923.32-.194.698-.296 1.084-.293s.76.112 1.078.31.56.48.697.808a1.59 1.59 0 0 1 .075 1.024c-.185.633-4.547 14.944-19.016 22.41-9.3 4.777-20.565 5.598-33.507 2.443l-1.985 6.458c-.132.423-.4.8-.768 1.086s-.822.465-1.303.517l-.305.01zM14.175 59.222l11.558 18.653 1.526-4.747c.16-.55.55-1.023 1.1-1.315a2.87 2.87 0 0 1 1.974-.178c12.43 3.244 23.105 2.64 31.828-1.8 7.905-4.065 12.54-10.602 14.96-15.142-10.27 5.865-19.114 7.675-26.093 7.675-10.697 0-17.02-4.233-17.446-4.55a2.21 2.21 0 0 1-.84-1.054c-.156-.42-.167-.874-.032-1.3l1.625-5.27-20.15 9.03z" fill="#00c4d1" stroke="#00c4d1"/><path d="M53.952 46.04a2.59 2.59 0 0 1-1.559-.544c-.36-.275-.628-.64-.77-1.047s-.15-.845-.027-1.258l2.18-7.12C50.136 34.09 33.89 27 10.37 42.992L7.306 45.07v-3.47c0-.82 3.85-12.758 15.178-20.492 9.955-6.794 22.538-8.407 37.41-4.777L61.9 9.9c.132-.422.398-.8.765-1.084s.82-.465 1.3-.518.966.024 1.398.22a2.37 2.37 0 0 1 1.029.887l13.924 22.46a2.09 2.09 0 0 1 .306.866 2.04 2.04 0 0 1-.099.905c-.097.29-.26.556-.474.786s-.48.417-.78.55L55.043 45.84c-.342.142-.715.21-1.1.198zM39.428 29.225c10.697 0 17.02 4.223 17.446 4.54a2.21 2.21 0 0 1 .84 1.054c.156.42.167.874.032 1.3l-1.625 5.27 20.107-9.03-11.536-18.603-1.45 4.747c-.17.536-.56.992-1.1 1.276a2.8 2.8 0 0 1-.972.273 2.86 2.86 0 0 1-1.013-.085c-12.474-3.224-23.16-2.62-31.817 1.8C20.4 25.863 15.756 32.4 13.336 36.93c10.27-5.865 19.114-7.665 26.093-7.665v-.04z" fill="#9d3bff" stroke="#9d3bff"/></g></svg>
